!!!OTL: LIEBES HERZCHEN ACH SCHOENSTES SCHAETZCHEN
!!!ARE: Europa, Mitteleuropa, Deutschland, Unter - Taunus, Hennethal
!!!SCT: E0588
!!!YEM: Copyright 1995, estate of Helmut Schaffrath.
**kern
*ICvox
*Ivox
*M3/4
*k[b-e-]
*B-:
{8d
8e-
=1
8f
8b-
8b-
8b-
8cc
8b-
=2
8a
8g
4g}
{8cc
8b-
=3
8a
8a
8b-
8b-
8cc
8cc
=4
8cc
8dd
4dd}
{8d
8e-
=5
8f
8b-
8b-
8b-
8cc
8b-
=6
8a
8g
4g}
{8cc
8b-
=7
8a
8a
8b-
8b-
8cc
8cc
=8
8cc
8dd
4dd}
{8b-
8cc
=9
4dd
4dd
8dd
8ff
=10
4ee-
4dd}
{8cc
8b-
=11
4.a
8g
8f
8e-
=12
4e-
4d}
{8d
8f
=13
4b-
8dd
8dd
8cc
8dd
=14
4ff
4ee-}
{8ee-
8dd
=15
8cc
8cc
8cc
8cc
8cc
8cc
=16
8cc
8ff
4dd}
==
!!!AGN: Liebes - Lied
!!!ONB: ESAC (Essen Associative Code) Database: ERK1
!!!AMT: simple triple
!!!AIN: vox
!!!EED: Helmut Schaffrath
!!!EEV: 1.0
*-
